logo.svg

<svg width="49" height="49" viewBox="0 0 49 49" fill="none" xmlns="http://www.w3.org/2000/svg">
  <path d="M25.8071 16.5V25L32.8071 29.16L31.3671 31.58L22.8071 26.5V16.5H25.8071Z" fill="#D72323"/>
  <path d="M42.8071 20.74H29.2471L34.7271 15.1C29.2671 9.7 20.4271 9.5 14.9671 14.9C9.50714 20.32 9.50714 29.06 14.9671 34.5C20.4271 39.9 29.2671 39.9 34.7271 34.5C37.4471 31.8 38.8071 28.66 38.8071 24.7H42.8071C42.8071 28.66 41.0471 33.8 37.5271 37.28C30.5071 44.24 19.1071 44.24 12.0871 37.28C5.08714 30.34 5.02714 19.06 12.0471 12.12C19.0671 5.18 30.3271 5.18 37.3471 12.12L42.8071 6.5V20.74Z" fill="#7EB77F"/>
</svg>

<svg width="48" height="48" viewBox="0 0 49 49" fill="none" xmlns="http://www.w3.org/2000/svg">
  <path d="M25.807 16.5V25l7 4.16-1.44 2.42-8.56-5.08v-10h3Z" fill="#D72323" />
  <path d="M42.807 20.74h-13.56l5.48-5.64c-5.46-5.4-14.3-5.6-19.76-.2a13.774 13.774 0 0 0 0 19.6c5.46 5.4 14.3 5.4 19.76 0 2.72-2.7 4.08-5.84 4.08-9.8h4c0 3.96-1.76 9.1-5.28 12.58-7.02 6.96-18.42 6.96-25.44 0-7-6.94-7.06-18.22-.04-25.16 7.02-6.94 18.28-6.94 25.3 0l5.46-5.62v14.24Z" fill="#CED1D6" />
</svg>
